src/assets/icons/letters,fancy,sans-a.svg

<svg width="48" height="48" viewBox="0 0 48 48" fill="none" xmlns="http://www.w3.org/2000/svg">
<g clip-path="url(#clip0_86:17)">
<path d="M15.5817 38L17.7408 31.3665H28.2379L30.397 38H36.9879L26.9595 8.90909H19.0334L8.99077 38H15.5817ZM19.3033 26.5653L22.8828 15.5568H23.1101L26.6896 26.5653H19.3033Z" fill="black"/>
</g>
<defs>
<clipPath id="clip0_86:17">
<rect width="48" height="48" fill="white"/>
</clipPath>
</defs>
</svg>

<svg xmlns="http://www.w3.org/2000/svg" width="48" height="48" fill="none" viewBox="0 0 48 48">
  <g clip-path="url(#clip0_86:17)">
    <path fill="#000" d="M15.582 38l2.159-6.634h10.497L30.397 38h6.59L26.96 8.91h-7.926L8.991 38h6.59zm3.721-11.435l3.58-11.008h.227l3.58 11.008h-7.387z"/>
  </g>
  <defs>
    <clipPath id="clip0_86:17">
      <path fill="#fff" d="M0 0h48v48H0z"/>
    </clipPath>
  </defs>
</svg>
